X:1
T:Jacob Kimball, 1784 D Major                  Revised by William Houser, 1874
T:Isaac Watts, 1707 (Hymn 70, Book 1, Stanza 1) - " Hark... " (Hymn 78, Book 1, Stanza 7) - "Come…"        88. 88. (L. M.)                               
T:Invitation
T:Transcribed from The Hesperian Harp, 1874.
%%score [ 1 2 3 4 ]
L:1/8
Q:1/4=90
M:2/2
K:D
V:1 treble nm="Tr." snm="Tr."
V:2 treble nm="C." snm="C."
V:3 treble-8 nm="T." snm="T."
V:4 bass nm="B." snm="B."
V:1
"^Hark! the Redeemer from on high,  Sweetly invites his favorites nigh;  From caves of darkness and of doubt,  He gently speaks, and calls us out.                                                             Come, my Be –" A4 F2 A2 | %1
 d4 A4 | GB AG F4 | d4 A2 A2 | d2 d2 c2 B2 | c4 c2 cc | d2 A2 dg fe | d4 cBAG | FG AB A2 A2 | A8 |: %10
 z8 | z8 | z4 d2 dd | %13
"^–lo–ved,  haste  a  –  way,   Cut short the hours of thy de   –    lay;   Fly     like    a     youth–ful  hart   or         roe              O  –   ver  the   hills                       where       spi          –         ces    grow." A2 A2 de dc | %14
 B4 A2 dd | c2 c2 dc Bc | A4 F2 FG | A2 (3GAB A2 A2 | A4 d2 dd | d6 c2 | (d>ef>e d2) ec | d8 :| %22
V:2
"^Hark! the Redeemer from on high,  Sweetly invites his favorites nigh;  From caves of darkness and of doubt,  He gently speaks, and calls us out." F4 A2 D2 | %1
 F4 A4 | G2 E2 F4 | F4 F2 A2 | B2 A2 GA B2 | A4 A2 AA | F2 F2 B2 A2 | G4 E2 EE | AG FE D2 E2 | %9
 F8 |: z8 | z8 | z8 | %13
 z4"^Come,  my  Be –lo–ved,  haste  a – way,  Cut short the hours of thy   de     –    lay;             Fly  like  a   youth – ful     hart   or           roe                 O  –  ver  the   hills   where   spices  grow.                                                                  Fly like a." F2 FF | %14
 E2 F2 A2 ^G2 | A4 A2 AA | F2 F2 AG FG | (A2 E2) F2 FF | A2 A2 DE FG | A4 ABAG | FE DE F2 E2 | %21
 D8 :| %22
V:3
"^Hark! the Redeemer from on high,  Sweetly invites his favorites nigh;  From caves of darkness and of doubt,  He gently speaks, and calls us out.                                  Come, my Beloved, haste a –" A4 d2 A2 | %1
 B4 A4 | B2 c2 d4 | A4 d2 c2 | d2 A2 G2 F2 | E4 E2 EE | F2 D2 FG A2 | B4 A2 AA | B2 AG F2 E2 | %9
 D8 |: z8 | z4 A2 AA | d2 A2 d2 e2 | %13
"^– way,  Cut  short the hours of thy de  – lay;    Fly  like  a   youth-ful  hart ________  or           roe                O        –       –        ver  the   hills ________ where       spi           –       ces     grow.                                                                  Fly like a." (f3 e) d2 dd | %14
 g2 f2 e2 d2 | e4 e2 ee | d2 d2 (A>BA>G | F2) d2 A4 | (A>GF>G A2) AA | (d>ef>e d2) g2 | %20
 (f>ed>e f2) e2 | d8 :| %22
V:4
 D,4 D,2 D,2 | (D,2 G,2) F,4 | B,2 A,2 D,4 | D,4 D,2 A,2 | G,2 F,2 E,2 D,2 | A,,4 A,,2 A,,A,, | %6
 D,2 D,2 D,E, F,2 | G,4 A,G,F,E, | D,E, F,G, A,2 A,,2 | D,8 |: %10
 z4"^Come, my Beloved, haste a–way, Cut short the" D,2 D,D, | A,2 G,2 F,2 E,2 | %12
 (D,2 A,2) G,2 G,G, | %13
"^_______________________________________________________________________________________________________________________________________________________________________________________________________________________\nWords and music revised by William Houser, 1874. In the original version by Jacob Kimball (1784), the words of Watts' Hymn 78 (\"\nCome, my beloved…\n\") were used, \nrepeating the last two lines of the stanza after the repeat.  Hauser's version was used in The Sacred Harp, p. 327, 1936 to the present.""^hours of thy _____________    de  –  lay;      Fly like  a  youth-ful hart _________  or          roe __________         O  –  ver  the   hills                        where      spi          –          ces    grow.                                                                  Fly like a." F,2 A,2 (D,4 | %14
 E,2 D,2 C,2) B,,2 | A,,4 A,,2 A,,A,, | D,2 D,2 (F,>G,F,>E, | D,2) E,2 (A,,4 | D,4) D,2 D,D, | %19
 D,6 E,2 | (F,2 G,2 A,2) A,,2 | D,8 :| %22

